icons/evolvere-blue-folders-flat-vivid-dark-fallback/apps/64/safe.svg

<?xml version="1.0" encoding="UTF-8" standalone="no"?>
<!-- Created with Inkscape (http://www.inkscape.org/) -->

<svg
   xmlns:dc="http://purl.org/dc/elements/1.1/"
   xmlns:cc="http://creativecommons.org/ns#"
   xmlns:rdf="http://www.w3.org/1999/02/22-rdf-syntax-ns#"
   xmlns:svg="http://www.w3.org/2000/svg"
   xmlns="http://www.w3.org/2000/svg"
   xmlns:sodipodi="http://sodipodi.sourceforge.net/DTD/sodipodi-0.dtd"
   xmlns:inkscape="http://www.inkscape.org/namespaces/inkscape"
   width="64"
   height="64"
   id="svg13094"
   version="1.1"
   inkscape:version="0.48.4 r9939"
   sodipodi:docname="safe.svg">
  <sodipodi:namedview
     id="base"
     pagecolor="#ffffff"
     bordercolor="#666666"
     borderopacity="1.0"
     inkscape:pageopacity="0"
     inkscape:pageshadow="2"
     inkscape:zoom="11.313709"
     inkscape:cx="42.02921"
     inkscape:cy="32.298445"
     inkscape:document-units="px"
     inkscape:current-layer="svg13094"
     showgrid="true"
     inkscape:snap-bbox="true"
     inkscape:bbox-paths="true"
     inkscape:bbox-nodes="true"
     inkscape:snap-bbox-edge-midpoints="true"
     inkscape:snap-bbox-midpoints="true"
     inkscape:object-paths="true"
     inkscape:snap-intersection-paths="true"
     inkscape:object-nodes="true"
     inkscape:snap-smooth-nodes="true"
     inkscape:snap-midpoints="true"
     inkscape:snap-object-midpoints="true"
     inkscape:snap-center="true"
     showguides="true"
     inkscape:guide-bbox="true"
     inkscape:window-width="1920"
     inkscape:window-height="1025"
     inkscape:window-x="-2"
     inkscape:window-y="32"
     inkscape:window-maximized="1"
     inkscape:snap-global="true"
     fit-margin-top="0"
     fit-margin-left="0"
     fit-margin-right="0"
     fit-margin-bottom="0"
     showborder="true"
     inkscape:showpageshadow="false"
     inkscape:snap-page="true">
    <inkscape:grid
       type="xygrid"
       id="grid3075"
       empspacing="5"
       visible="true"
       enabled="true"
       snapvisiblegridlinesonly="true"
       originx="1.6362304e-08px"
       originy="18px" />
  </sodipodi:namedview>
  <defs
     id="defs13096" />
  <metadata
     id="metadata13099">
    <rdf:RDF>
      <cc:Work
         rdf:about="">
        <dc:format>image/svg+xml</dc:format>
        <dc:type
           rdf:resource="http://purl.org/dc/dcmitype/StillImage" />
        <dc:title />
      </cc:Work>
    </rdf:RDF>
  </metadata>
  <path
     inkscape:connector-curvature="0"
     style="color:#000000;fill:#3b577a;fill-opacity:1;fill-rule:nonzero;stroke:none;stroke-width:1;marker:none;visibility:visible;display:inline;overflow:visible;enable-background:accumulate"
     d="m 0,4 0,30 0,28 2,2 30,0 30,0 2,-2 L 64,34 64,4 32,4 0,4 z"
     id="path4095" />
  <path
     inkscape:connector-curvature="0"
     style="color:#000000;fill:#668cbb;fill-opacity:1;fill-rule:nonzero;stroke:none;stroke-width:2.28571415;marker:none;visibility:visible;display:inline;overflow:visible;enable-background:accumulate"
     d="M 2,0 0,1 0,4 32,4 64,4 64,1 62,0 32,0 2,0 z"
     id="path4090" />
  <path
     inkscape:connector-curvature="0"
     style="fill:#729bcd;fill-opacity:1;fill-rule:nonzero;stroke-width:1;stroke-linecap:butt;stroke-linejoin:miter;stroke-miterlimit:4;stroke-opacity:1;stroke-dasharray:none;stroke-dashoffset:0"
     d="M 0,3 0,6 2,4 z"
     id="path4298"
     sodipodi:nodetypes="cccc" />
  <path
     d="M 64,6 62,4 64,3 z"
     id="path3028"
     style="fill:#4f6f97;fill-opacity:1;stroke:none;stroke-width:0.62299293;marker:none"
     inkscape:connector-curvature="0" />
  <g
     id="g3043"
     inkscape:export-filename="folder.png"
     inkscape:export-xdpi="90"
     inkscape:export-ydpi="90"
     transform="translate(-0.62500009,0.082283)" />
  <g
     id="scalable"
     transform="matrix(1.0385892,0,0,1.0385892,1214.7222,1878.8121)"
     inkscape:label="#g3701"
     style="fill:#ffffff" />
  <g
     id="g3036">
    <path
       id="rect3845"
       d="M 5 8 L 5 59 L 59 59 L 59 8 L 5 8 z M 7 10 L 57 10 L 57 57 L 7 57 L 7 10 z "
       style="color:#000000;fill:#000000;fill-opacity:0.1557744;fill-rule:nonzero;stroke:none;stroke-width:4;marker:none;visibility:visible;display:inline;overflow:visible;enable-background:accumulate" />
    <rect
       inkscape:transform-center-y="-10.6875"
       y="23"
       x="31"
       height="16.625"
       width="2"
       id="rect3878"
       style="color:#000000;fill:#dcdfe4;fill-opacity:1;fill-rule:nonzero;stroke:none;stroke-width:4;marker:none;visibility:visible;display:inline;overflow:visible;enable-background:accumulate" />
    <path
       inkscape:connector-curvature="0"
       id="rect3878-4"
       d="m 36,31 0,10.09375 C 33.158589,41.566728 31,44.024379 31,47 c 0,0.735229 0.133004,1.442783 0.375,2.09375 l -8.71875,5.03125 1,1.75 8.75,-5.03125 C 33.506881,52.15773 35.151876,53 37,53 c 1.848124,0 3.493119,-0.84227 4.59375,-2.15625 l 8.75,5.03125 1,-1.75 L 42.625,49.09375 C 42.866996,48.442783 43,47.735229 43,47 43,44.024379 40.841411,41.566728 38,41.09375 L 38,31 36,31 z"
       style="color:#000000;fill:#000000;fill-opacity:0.07967771;fill-rule:nonzero;stroke:none;stroke-width:4;marker:none;visibility:visible;display:inline;overflow:visible;enable-background:accumulate" />
    <rect
       inkscape:transform-center-x="-9.2556475"
       transform="matrix(-0.5,0.8660254,-0.8660254,-0.5,0,0)"
       inkscape:transform-center-y="5.3437506"
       y="-67.712814"
       x="19.373068"
       height="16.625"
       width="2"
       id="rect3882"
       style="color:#000000;fill:#dcdfe4;fill-opacity:1;fill-rule:nonzero;stroke:none;stroke-width:4;marker:none;visibility:visible;display:inline;overflow:visible;enable-background:accumulate" />
    <rect
       inkscape:transform-center-x="9.0932663"
       transform="matrix(-0.5,-0.8660254,0.8660254,-0.5,0,0)"
       style="color:#000000;fill:#dcdfe4;fill-opacity:1;fill-rule:nonzero;stroke:none;stroke-width:4;marker:none;visibility:visible;display:inline;overflow:visible;enable-background:accumulate"
       id="rect3852"
       width="2"
       height="17"
       x="-53.37307"
       y="-12.287187"
       inkscape:transform-center-y="5.2499996" />
    <path
       transform="matrix(1.714286,0,0,1.714286,-25.428583,-22.285727)"
       d="m 37,37.5 a 3.5,3.5 0 1 1 -7,0 3.5,3.5 0 1 1 7,0 z"
       sodipodi:ry="3.5"
       sodipodi:rx="3.5"
       sodipodi:cy="37.5"
       sodipodi:cx="33.5"
       id="path3848"
       style="color:#000000;fill:#dcdfe4;fill-opacity:1;fill-rule:nonzero;stroke:none;stroke-width:4;marker:none;visibility:visible;display:inline;overflow:visible;enable-background:accumulate"
       sodipodi:type="arc" />
    <g
       id="g6595">
      <rect
         style="color:#000000;fill:#000000;fill-opacity:0.1557744;fill-rule:nonzero;stroke:none;stroke-width:4;marker:none;visibility:visible;display:inline;overflow:visible;enable-background:accumulate"
         id="rect6575"
         width="14"
         height="14"
         x="38"
         y="14" />
      <rect
         y="17"
         x="41"
         height="2"
         width="2"
         id="rect6579"
         style="color:#000000;fill:#b6ff6a;fill-opacity:0.82094896;fill-rule:nonzero;stroke:none;stroke-width:4;marker:none;visibility:visible;display:inline;overflow:visible;enable-background:accumulate" />
      <rect
         y="17"
         x="44"
         height="2"
         width="2"
         id="rect6581"
         style="color:#000000;fill:#b6ff6a;fill-opacity:0.82094896;fill-rule:nonzero;stroke:none;stroke-width:4;marker:none;visibility:visible;display:inline;overflow:visible;enable-background:accumulate" />
      <rect
         y="17"
         x="47"
         height="2"
         width="2"
         id="rect6583"
         style="color:#000000;fill:#b6ff6a;fill-opacity:0.82094896;fill-rule:nonzero;stroke:none;stroke-width:4;marker:none;visibility:visible;display:inline;overflow:visible;enable-background:accumulate" />
      <rect
         y="20"
         x="47"
         height="2"
         width="2"
         id="rect6585"
         style="color:#000000;fill:#b6ff6a;fill-opacity:0.82094896;fill-rule:nonzero;stroke:none;stroke-width:4;marker:none;visibility:visible;display:inline;overflow:visible;enable-background:accumulate" />
      <rect
         y="20"
         x="44"
         height="2"
         width="2"
         id="rect6587"
         style="color:#000000;fill:#b6ff6a;fill-opacity:0.82094896;fill-rule:nonzero;stroke:none;stroke-width:4;marker:none;visibility:visible;display:inline;overflow:visible;enable-background:accumulate" />
      <rect
         y="20"
         x="41"
         height="2"
         width="2"
         id="rect6589"
         style="color:#000000;fill:#b6ff6a;fill-opacity:0.82094896;fill-rule:nonzero;stroke:none;stroke-width:4;marker:none;visibility:visible;display:inline;overflow:visible;enable-background:accumulate" />
      <rect
         y="23"
         x="41"
         height="2"
         width="2"
         id="rect6591"
         style="color:#000000;fill:#b6ff6a;fill-opacity:0.82094896;fill-rule:nonzero;stroke:none;stroke-width:4;marker:none;visibility:visible;display:inline;overflow:visible;enable-background:accumulate" />
      <rect
         y="23"
         x="44"
         height="2"
         width="2"
         id="rect6593"
         style="color:#000000;fill:#b6ff6a;fill-opacity:0.82094896;fill-rule:nonzero;stroke:none;stroke-width:4;marker:none;visibility:visible;display:inline;overflow:visible;enable-background:accumulate" />
      <rect
         style="color:#000000;fill:#b6ff6a;fill-opacity:0.82094896;fill-rule:nonzero;stroke:none;stroke-width:4;marker:none;visibility:visible;display:inline;overflow:visible;enable-background:accumulate"
         id="rect6577"
         width="2"
         height="2"
         x="47"
         y="23" />
    </g>
    <rect
       y="15"
       x="57"
       height="11"
       width="4"
       id="rect6722"
       style="color:#000000;fill:#000000;fill-opacity:0.24193546;fill-rule:nonzero;stroke:none;stroke-width:4;marker:none;visibility:visible;display:inline;overflow:visible;enable-background:accumulate" />
    <rect
       style="color:#000000;fill:#000000;fill-opacity:0.24193546;fill-rule:nonzero;stroke:none;stroke-width:4;marker:none;visibility:visible;display:inline;overflow:visible;enable-background:accumulate"
       id="rect6650-5"
       width="4"
       height="11"
       x="57"
       y="43" />
    <rect
       y="14"
       x="56"
       height="11"
       width="4"
       id="rect6650"
       style="color:#000000;fill:#dcdfe4;fill-opacity:1;fill-rule:nonzero;stroke:none;stroke-width:4;marker:none;visibility:visible;display:inline;overflow:visible;enable-background:accumulate" />
    <rect
       y="16"
       x="56"
       height="1"
       width="4"
       id="rect6652"
       style="color:#000000;fill:#000000;fill-opacity:0.10295434;fill-rule:nonzero;stroke:none;stroke-width:4;marker:none;visibility:visible;display:inline;overflow:visible;enable-background:accumulate" />
    <rect
       style="color:#000000;fill:#000000;fill-opacity:0.10295434;fill-rule:nonzero;stroke:none;stroke-width:4;marker:none;visibility:visible;display:inline;overflow:visible;enable-background:accumulate"
       id="rect6654"
       width="4"
       height="1"
       x="56"
       y="22" />
    <rect
       style="color:#000000;fill:#dcdfe4;fill-opacity:1;fill-rule:nonzero;stroke:none;stroke-width:4;marker:none;visibility:visible;display:inline;overflow:visible;enable-background:accumulate"
       id="rect6620"
       width="4"
       height="11"
       x="56"
       y="42" />
    <rect
       style="color:#000000;fill:#000000;fill-opacity:0.10295434;fill-rule:nonzero;stroke:none;stroke-width:4;marker:none;visibility:visible;display:inline;overflow:visible;enable-background:accumulate"
       id="rect6641"
       width="4"
       height="1"
       x="56"
       y="44" />
    <rect
       y="50"
       x="56"
       height="1"
       width="4"
       id="rect6607"
       style="color:#000000;fill:#000000;fill-opacity:0.10295434;fill-rule:nonzero;stroke:none;stroke-width:4;marker:none;visibility:visible;display:inline;overflow:visible;enable-background:accumulate" />
    <path
       sodipodi:nodetypes="ccccccccc"
       inkscape:connector-curvature="0"
       id="rect6724"
       d="m 13,13 3,3 0,19 -6,-6 3,-2 1,1 0,-9 -4,-4 z"
       style="color:#000000;fill:#000000;fill-opacity:0.07967771;fill-rule:nonzero;stroke:none;stroke-width:4;marker:none;visibility:visible;display:inline;overflow:visible;enable-background:accumulate" />
    <rect
       style="color:#000000;fill:#dcdfe4;fill-opacity:1;fill-rule:nonzero;stroke:none;stroke-width:4;marker:none;visibility:visible;display:inline;overflow:visible;enable-background:accumulate"
       id="rect6726"
       width="3"
       height="16"
       x="10"
       y="13" />
  </g>
</svg>

<svg xmlns="http://www.w3.org/2000/svg" viewBox="0 0 64 64"><g color="#000"><path d="m0 4v30 28l2 2h30 30l2-2v-28-30h-32-32" fill="#3b577a"/><path d="m2 0l-2 1v3h32 32v-3l-2-1h-30-30" fill="#668cbb"/></g><path d="m0 3v3l2-2z" fill="#729bcd"/><path d="m64 6l-2-2 2-1z" fill="#4f6f97"/><g color="#000"><path d="m5 8v51h54v-51h-54m2 2h50v47h-50v-47" fill-opacity=".156"/><path fill="#dcdfe4" d="m31 23h2v16.625h-2z"/><path d="m36 31v10.09c-2.841.473-5 2.931-5 5.906 0 .735.133 1.443.375 2.094l-8.719 5.03 1 1.75 8.75-5.03c1.101 1.314 2.746 2.156 4.594 2.156 1.848 0 3.493-.842 4.594-2.156l8.75 5.03 1-1.75-8.719-5.03c.242-.651.375-1.359.375-2.094 0-2.976-2.159-5.433-5-5.906v-10.09h-2" fill-opacity=".08"/><g fill="#dcdfe4"><path transform="matrix(-.5.86603-.86603-.5 0 0)" d="m19.373-67.71h2v16.625h-2z"/><path transform="matrix(-.5-.86603.86603-.5 0 0)" d="m-53.37-12.287h2v17h-2z"/><path transform="matrix(1.71429 0 0 1.71429-25.429-22.286)" d="m37 37.5a3.5 3.5 0 1 1 -7 0 3.5 3.5 0 1 1 7 0"/></g><path fill-opacity=".156" d="m38 14h14v14h-14z"/><g fill="#b6ff6a" fill-opacity=".821"><path d="m41 17h2v2h-2z"/><path d="m44 17h2v2h-2z"/><path d="m47 17h2v2h-2z"/><path d="m47 20h2v2h-2z"/><path d="m44 20h2v2h-2z"/><path d="m41 20h2v2h-2z"/><path d="m41 23h2v2h-2z"/><path d="m44 23h2v2h-2z"/><path d="m47 23h2v2h-2z"/></g><g fill-opacity=".242"><path d="m57 15h4v11h-4z"/><path d="m57 43h4v11h-4z"/></g><path fill="#dcdfe4" d="m56 14h4v11h-4z"/><g fill-opacity=".103"><path d="m56 16h4v1h-4z"/><path d="m56 22h4v1h-4z"/></g><path fill="#dcdfe4" d="m56 42h4v11h-4z"/><g fill-opacity=".103"><path d="m56 44h4v1h-4z"/><path d="m56 50h4v1h-4z"/></g><path d="m13 13l3 3v19l-6-6 3-2 1 1v-9l-4-4z" fill-opacity=".08"/><path fill="#dcdfe4" d="m10 13h3v16h-3z"/></g></svg>
